X:80
T: Dance on the Fivepenny
S: "First Collection of Traditional Irish Music" (M.Mulvihill)
Z: B.Black
L: 1/8
M: 6/8
R: jig
K: G
(3ABc|d2g fdc|B2d cAG|EAA ABc|EAA ABc|
d2g fdc|B2d cAF|GAG GAG|GAG G :|
(3ABc|d2e c2d|B2d BAG|EAA ABc|EAA ABc|
d2g fdc|B2d cAF|GAG GAG|GAG G :|
